X:21001
T:Uncle Bernard's
R:Polka
C:Trad.
O:England
Z:Paul Hardy's Session Tunebook 2015 (see www.paulhardy.net). Creative Commons cc by-nc-sa licenced.
M:2/2
L:1/4
Q:1/2=100
K:G
d|"G"GA "D7"Bc|"G"d>e d/c/B|"D7"c>d c/B/A|"G"B>c BA|"G"GA "D7"Bc|"G"d>e dg|"D7"f/e/d/c/ BA|"G"G2>:|
|:f2|"C"gg fe|"G"d>e d/c/B|"D7"c>d c/B/A|"G"B>c Bd|"C"gg fe|"G"d>e dg|"D7"f/e/d/c/ BA|"G"G3:|

